dist/img/advantages/03.svg

<?xml version="1.0" encoding="UTF-8"?> <svg xmlns="http://www.w3.org/2000/svg" width="300" height="300" viewBox="0 0 300 300" fill="none"> <path d="M268.365 234.811H30.7973C25.5487 234.805 20.5168 232.717 16.8054 229.005C13.0941 225.294 11.0063 220.262 11 215.014V72.473H18.9189V215.014C18.9189 218.164 20.1704 221.185 22.398 223.413C24.6256 225.64 27.647 226.892 30.7973 226.892H268.365C271.515 226.892 274.537 225.64 276.764 223.413C278.992 221.185 280.243 218.164 280.243 215.014V40.7973C280.243 37.647 278.992 34.6256 276.764 32.398C274.537 30.1704 271.515 28.9189 268.365 28.9189H30.7973C27.647 28.9189 24.6256 30.1704 22.398 32.398C20.1704 34.6256 18.9189 37.647 18.9189 40.7973V72.473H11V40.7973C11.0063 35.5487 13.0941 30.5168 16.8054 26.8054C20.5168 23.0941 25.5487 21.0063 30.7973 21H268.365C273.614 21.0063 278.645 23.0941 282.357 26.8054C286.068 30.5168 288.156 35.5487 288.162 40.7973V215.014C288.156 220.262 286.068 225.294 282.357 229.005C278.645 232.717 273.614 234.805 268.365 234.811Z" fill="#ffffff"></path> <path d="M205.491 279.55H86.7075C85.6574 279.55 84.6503 279.133 83.9077 278.39C83.1652 277.647 82.748 276.64 82.748 275.59C82.748 255.793 103.61 255.793 110.464 255.793H181.735C188.588 255.793 209.451 255.793 209.451 275.59C209.451 276.64 209.034 277.647 208.291 278.39C207.549 279.133 206.541 279.55 205.491 279.55ZM91.1461 271.631H201.053C199.671 266.757 194.892 263.712 181.735 263.712H110.464C97.307 263.712 92.5279 266.757 91.1461 271.631Z" fill="#ffffff"></path> <path d="M177.766 260.449H114.415C113.364 260.449 112.357 260.032 111.615 259.289C110.872 258.547 110.455 257.54 110.455 256.49V232.733C110.455 231.683 110.872 230.676 111.615 229.933C112.357 229.191 113.364 228.773 114.415 228.773H177.766C178.816 228.773 179.823 229.191 180.566 229.933C181.308 230.676 181.725 231.683 181.725 232.733V256.49C181.725 257.54 181.308 258.547 180.566 259.289C179.823 260.032 178.816 260.449 177.766 260.449ZM118.374 252.53H173.806V236.692H118.374V252.53Z" fill="#ffffff"></path> <path d="M11.4824 203.613H280.726V211.532H11.4824V203.613Z" fill="#ffffff"></path> <path d="M130.258 219.438H161.933V227.356H130.258V219.438Z" fill="#ffffff"></path> </svg>

<svg xmlns="http://www.w3.org/2000/svg" width="300" height="300" fill="none"><path d="M268.365 234.811H30.797A19.818 19.818 0 0111 215.014V72.473h7.919v142.541a11.88 11.88 0 0011.878 11.878h237.568a11.88 11.88 0 0011.878-11.878V40.797a11.877 11.877 0 00-11.878-11.878H30.797A11.879 11.879 0 0018.92 40.797v31.676H11V40.797A19.822 19.822 0 0130.797 21h237.568a19.822 19.822 0 0119.797 19.797v174.217a19.82 19.82 0 01-19.797 19.797zm-62.874 44.739H86.707a3.958 3.958 0 01-3.959-3.96c0-19.797 20.862-19.797 27.716-19.797h71.271c6.853 0 27.716 0 27.716 19.797a3.96 3.96 0 01-3.96 3.96zm-114.345-7.919h109.907c-1.382-4.874-6.161-7.919-19.318-7.919h-71.271c-13.157 0-17.936 3.045-19.318 7.919z" fill="#fff"/><path d="M177.766 260.449h-63.351a3.956 3.956 0 01-2.8-1.16 3.955 3.955 0 01-1.16-2.799v-23.757a3.96 3.96 0 013.96-3.96h63.351a3.963 3.963 0 013.959 3.96v23.757a3.959 3.959 0 01-3.959 3.959zm-59.392-7.919h55.432v-15.838h-55.432v15.838zM11.482 203.613h269.244v7.919H11.482v-7.919zm118.776 15.825h31.675v7.918h-31.675v-7.918z" fill="#fff"/></svg>
